svg/lilyPadInterior.svg

<?xml version="1.0" encoding="UTF-8" standalone="no"?>
<!-- Created with Inkscape (http://www.inkscape.org/) -->

<svg
   width="32"
   height="32"
   viewBox="0 0 8.4666666 8.4666668"
   version="1.1"
   id="svg5"
   inkscape:version="1.2 (dc2aeda, 2022-05-15)"
   sodipodi:docname="lilyPadInterior.svg"
   xmlns:inkscape="http://www.inkscape.org/namespaces/inkscape"
   xmlns:sodipodi="http://sodipodi.sourceforge.net/DTD/sodipodi-0.dtd"
   xmlns="http://www.w3.org/2000/svg"
   xmlns:svg="http://www.w3.org/2000/svg"
   xmlns:rdf="http://www.w3.org/1999/02/22-rdf-syntax-ns#"
   xmlns:cc="http://creativecommons.org/ns#">
  <sodipodi:namedview
     id="namedview7"
     pagecolor="#ffffff"
     bordercolor="#111111"
     borderopacity="1"
     inkscape:pageshadow="0"
     inkscape:pageopacity="0"
     inkscape:pagecheckerboard="1"
     inkscape:document-units="mm"
     showgrid="true"
     width="32mm"
     units="px"
     objecttolerance="10000"
     guidetolerance="10000"
     inkscape:snap-perpendicular="true"
     inkscape:snap-tangential="true"
     inkscape:zoom="34.90625"
     inkscape:cx="7.4485228"
     inkscape:cy="15.942704"
     inkscape:window-width="2560"
     inkscape:window-height="1301"
     inkscape:window-x="0"
     inkscape:window-y="25"
     inkscape:window-maximized="0"
     inkscape:current-layer="layer1"
     inkscape:showpageshadow="0"
     inkscape:deskcolor="#d1d1d1">
    <inkscape:grid
       type="xygrid"
       id="grid9"
       units="px"
       empspacing="4" />
  </sodipodi:namedview>
  <defs
     id="defs2" />
  <g
     inkscape:label="Layer 1"
     inkscape:groupmode="layer"
     id="layer1">
    <path
       id="path7184"
       style="fill:#000000;stroke-width:0;stroke:none"
       d="M 2.6458333 1.5875 C 2.0613325 1.5875001 1.5875 2.2982489 1.5875 3.175 L 1.5875 4.2333333 C 1.5874999 5.6945853 2.7720814 6.8791667 4.2333333 6.8791667 C 5.6945854 6.8791668 6.8791668 5.6945854 6.8791667 4.2333333 L 6.8791667 3.175 C 6.8791667 2.2982489 6.4053341 1.5875 5.8208333 1.5875 C 5.0913358 1.5875003 4.4997423 2.7684761 4.4979167 4.2266154 A 0.26458332 0.26458332 0 0 1 4.4979167 4.2333333 A 0.26458332 0.26458332 0 0 1 4.2333333 4.4979167 A 0.26458332 0.26458332 0 0 1 3.96875 4.2333333 C 3.96875 2.7720816 3.3764594 1.5875002 2.6458333 1.5875 z " />
  </g>
  <metadata
     id="metadata33">
    <rdf:RDF>
      <cc:Work
         rdf:about="">
        <cc:license
           rdf:resource="http://creativecommons.org/licenses/by-sa/4.0/" />
      </cc:Work>
      <cc:License
         rdf:about="http://creativecommons.org/licenses/by-sa/4.0/">
        <cc:permits
           rdf:resource="http://creativecommons.org/ns#Reproduction" />
        <cc:permits
           rdf:resource="http://creativecommons.org/ns#Distribution" />
        <cc:requires
           rdf:resource="http://creativecommons.org/ns#Notice" />
        <cc:requires
           rdf:resource="http://creativecommons.org/ns#Attribution" />
        <cc:permits
           rdf:resource="http://creativecommons.org/ns#DerivativeWorks" />
        <cc:requires
           rdf:resource="http://creativecommons.org/ns#ShareAlike" />
      </cc:License>
    </rdf:RDF>
  </metadata>
</svg>

<svg width="32" height="32" viewBox="0 0 8.467 8.467" xmlns="http://www.w3.org/2000/svg"><path style="fill:#000;stroke-width:0;stroke:none" d="M2.646 1.587c-.585 0-1.058.711-1.058 1.588v1.058a2.646 2.646 0 0 0 5.291 0V3.175c0-.877-.474-1.587-1.058-1.587-.73 0-1.321 1.18-1.323 2.639a.265.265 0 0 1 0 .006.265.265 0 0 1-.265.265.265.265 0 0 1-.264-.265c0-1.46-.593-2.645-1.323-2.645z"/></svg>
